X:1
T:Title
%%score { ( 1 4 ) | ( 2 3 ) }
L:1/8
M:4/4
K:E
V:1 treble nm="Grand Piano"
V:4 treble 
V:2 bass 
V:3 bass 
V:1
 z4 z2[Q:1/4=108] BB | B2 B2 [DA]2 [DF]2 | E6 [GB][GB] | [Ge]2 [Ge]2 [Ae]2 [Ac]2 | [GB]6 BB | %5
 c2 c2 B2 B2 | B2 A2 [EG]2 [A,CF][A,CF] | [G,B,E]2 [G,B,E]2 [B,EG]2 [A,DF]2 |[M:3/4] [G,E]6 | %9
[M:1/4] z G |[M:4/4] B6 z2 | [B,EG]2 [A,DF]2 [G,E]2 GB | c6 z2 | [EAc]2 [EGB]2 [EGB]2 GB | e6 z2 | %15
 [EAc]2 [EGB]2 [B,EG]2 [G,B,E][A,CEF] | [B,EG]2 [B,EG]2 [A,DF]2 [A,DF]2 |[M:3/4] [G,E]6 |] %18
V:2
 z4 z2 [E,G,E][E,G,E] | [E,G,E]2 [E,G,E]2 [B,,F,]2 [B,,A,]2 | [E,G,]6 [E,E][E,E] | %3
 [E,B,]2 [E,B,]2 [E,C]2 [E,E]2 | [E,E]6 [E,G,E][E,G,E] | [A,E]2 [A,E]2 [G,B,E]2 [G,B,E]2 | %6
 [F,D]4 z4 | B,,2 B,,2 B,,2 B,,2 |[M:3/4] E,6 |[M:1/4][K:treble] EE |[M:4/4] G6[K:bass] z2 | %11
 B,,2 B,,2 E,2[K:treble] EG | A6[K:bass] z2 | E,2 E,2 E,2[K:treble] EG | G6[K:bass] z2 | %15
 E,2 E,2 E,2 G,,A,, | B,,2 B,,2 B,,2 B,,2 |[M:3/4] E,6 |] %18
V:3
 x8 | x8 | x8 | x8 | x8 | x8 | B,4- [E,B,]2 A,,A,, | x8 |[M:3/4] x6 |[M:1/4][K:treble] x2 | %10
[M:4/4] z2[K:bass] E,E, E,2 E,2 | x6[K:treble] x2 | z2 A,A,[K:bass] A,2 A,2 | x6[K:treble] x2 | %14
 z2[K:bass] E,E, E,2 E,2 | x8 | x8 |[M:3/4] x6 |] %18
V:4
 x8 | x8 | x8 | x8 | x8 | x8 | x8 | x8 |[M:3/4] x6 |[M:1/4] x2 |[M:4/4] z2 EE E2 [B,EG]2 | x8 | %12
 z2 EE E2 [CEA]2 | x8 | z2 B,B, B,2 [EGB]2 | x8 | x8 |[M:3/4] x6 |] %18

